!!!!SEGMENT: pl-wnifc--6640-n_dietrich-moritz--polonaise-brillante-op-38.krn
!!!cenid: 18xx:4011
!!!COM: Dietrich, Moritz
!!!COM-rismID: pe40205597
!!!CDT: 1816-1887
!!!CNT:
!!!OTL: Polonaise Brillante op. 38
!!!PDT: 1867
!!!AGN:
!!!SMS-siglum: PL-Wnifc
!!!SMS-shelfmark: 6640/n
!!!SMS-shelfwork: W
!!!SMS-variant:
!!!SMS-altvar:
!!!NIFC-rismSourceID: 1001149369
!!!NIFC-rismChildID: 1001149369
!!!NIFC-islandoraID: nifc:212951
!!!URL-pdf-islandora: https://repozytorium.nifc.pl/islandora/object/nifc%3A212951/datastream/PDF/view
!!!URL-scan: https://polish.musicsources.pl/pl/lokalizacje/galeria/druki-muzyczne/16875 @EN{Scan on Polish Music Sources Website} @PL{Skany w portalu Dziedzictwo Muzyki Polskiej w otwartym dostępie}
!!!IIIF:
!!!ONB-nifc:
!!!AIN: 2 piano
!!!key: F
**kern	**kern	**dynam
*part2	*part1	*part1
*staff2	*staff1	*
*I"Piano.	*I"Piano.	*
*I'pf	*I'pf	*
*ICklav	*ICklav	*
*Ipiano	*Ipiano	*
*clefF4	*clefG2	*
*k[]	*k[]	*
*F:	*F:	*
*M3/4	*M3/4	*
=1	=1	=1
*	*ped	*
!	!LO:TX:a:B:t=Tempo di Polacca.	!
8CC\L 8C	8e'\L 8cc 8ee	f
16E\L 16G 16c 16e	8g'\J 8ee 8gg	.
16E\J 16G 16c 16e	.	.
8E'\ 8G 8c 8e	(4.a^\ 4.ff 4.aa	.
8E'\ 8G 8c 8e	.	.
8E'\ 8G 8c 8e	.	.
8E'\J 8G 8c 8e	8g\) 8ee 8gg	.
*	*Xped	*
=2	=2	=2
*	*ped	*
8CC\L 8C	8e'\L 8cc 8ee	.
16E\L 16G 16c 16e	8cc'\J 8ee 8ccc	.
16E\J 16G 16c 16e	.	.
8E'\ 8G 8c 8e	(4.dd^\ 4.ff 4.ddd	.
8E'\ 8G 8c 8e	.	.
8E'\ 8G 8c 8e	.	.
8E'\J 8G 8c 8e	8cc\) 8ee 8ccc	.
*	*Xped	*
=3	=3	=3
*	*ped	*
8CC\L 8C	8g'\L 8ee 8gg	.
16E\L 16G 16c 16e	8ee'\ 8gg 8eee	.
16E\J 16G 16c 16e	.	.
8E\ 8G 8c 8e	8ff'\ 8aa 8fff	.
8E\J 8G 8c 8e	8ee'\ 8gg 8eee	.
*	*Xped	*
8EEE\L 8EE	8dd'\ 8gg 8ddd	.
8E\J 8G 8c	8cc'\J 8gg 8ccc	.
=4	=4	=4
*	*ped	*
8FFF\L 8FF	16b\LL 16gg 16bb	ff
.	16a\ 16ff 16aa	.
16F\L 16A 16d	16a\ 16ff 16aa	.
16F\J 16A 16d	16g#X\JJ 16ee 16gg#X	.
8F'\ 8A 8d	4a\ 4ff 4aa	.
*	*Xped	*
8F'\ 8A 8d	.	.
8F'\ 8A 8d	4r	.
8F'\J 8A 8d	.	.
!!LO:LB:g=original	!	!
=5	=5	=5
*	*ped	*
8DD\L 8D	8f'\L 8dd 8ff	f
16F\L 16A 16d	8a'\J 8ff 8aa	.
16F\J 16A 16d	.	.
8F'\ 8A 8d	(4.b^\ 4.gg 4.bb	.
8F'\ 8A 8d	.	.
8F'\ 8A 8d	.	.
8F'\J 8A 8d	8a\) 8ff 8aa	.
*	*Xped	*
=6	=6	=6
*	*ped	*
8DD\L 8D	8f'\L 8dd 8ff	.
16F\L 16A 16d	8dd'\J 8ff 8ddd	.
16F\J 16A 16d	.	.
8F'\ 8A 8d	(4.ee^\ 4.gg 4.eee	.
8F'\ 8A 8d	.	.
8F'\ 8A 8d	.	.
8F'\J 8A 8d	8dd\) 8ff 8ddd	.
*	*Xped	*
=7	=7	=7
*	*ped	*
8GGG\L 8GG	8b\ 8dd 8bb	.
16G\L 16d 16f	4g^\ 4b 4gg	.
16G\J 16d 16f	.	.
8G\ 8d 8f	.	.
8G\ 8d 8f	(16a\LL 16cc 16aa	.
*	*Xped	*
.	16b\JJ 16dd 16bb	.
8G\ 8c 8e	16cc\LL 16ee 16ccc	<
.	16b\ 16dd 16bb	.
8G\J 8c 8e	16cc\ 16ee 16ccc	.
.	16ee\JJ) 16eee	[[
=8	=8	=8
8G/L 8B 8d	8dd\L 8gg 8ddd	ff
16GGG'/L 16GG	16gg'\L 16ggg	.
16GGG'/J 16GG	16gg'\J 16ggg	.
8GGG'/ 8GG	8gg'\ 8ggg	.
8GGG'/ 8GG	8gg'\ 8ggg	.
8GGG'/ 8GG	8gg'\ 8ggg	.
8GGG'/J 8GG	8gg'\J 8ggg	.
=9	=9	=9
*	*ped	*
8CCC\L 8CC	8e'\L 8cc 8ee	f
16E\L 16G 16c 16e	8g'\J 8ee 8gg	.
16E\J 16G 16c 16e	.	.
8E\ 8G 8c 8e	(4.a^\ 4.ff 4.aa	.
8E\ 8G 8c 8e	.	.
8E\ 8G 8c 8e	.	.
8E\J 8G 8c 8e	8g\) 8ee 8gg	.
*	*Xped	*
!!LO:LB:g=original	!	!
=10	=10	=10
*	*ped	*
8CC\L 8C	8e'\L 8cc 8ee	.
16E\L 16G 16c 16e	8cc'\J 8ee 8ccc	.
16E\J 16G 16c 16e	.	.
8E\ 8G 8c 8e	(4.dd^\ 4.ff 4.ddd	.
8E\ 8G 8c 8e	.	.
8E\ 8G 8c 8e	.	.
8E\J 8G 8c 8e	8cc\) 8ee 8ccc	.
*	*Xped	*
=11	=11	=11
*	*ped	*
8CC\L 8C	8g'\L 8ee 8gg	.
16E\L 16G 16c 16e	8ee'\ 8gg 8eee	.
16E\J 16G 16c 16e	.	.
8E\ 8G 8c 8e	8ff'\ 8aa 8fff	.
8E\J 8G 8c 8e	8ee'\ 8gg 8eee	.
*	*Xped	*
8EEE\L 8EE	8dd'\ 8gg 8ddd	.
8E\J 8G 8c	8cc'\J 8gg 8ccc	.
=12	=12	=12
*	*ped	*
8FFF\L 8FF	16b\LL 16gg 16bb	ff
.	16a\ 16ff 16aa	.
16F\L 16A 16d	16a\ 16ff 16aa	.
16F\J 16A 16d	16g#X\JJ 16ee 16gg#X	.
8F\ 8A 8d	4a\ 4ff 4aa	.
*	*Xped	*
8F\ 8A 8d	.	.
8F\ 8A 8d	4r	.
8F\J 8A 8d	.	.
=13	=13	=13
*	*ped	*
8GGG\L 8GG	8ff\ 8bb 8fff	.
!	!LO:TX:b:t=cre_scen_do:dur=2s3e2q:ext=ud:problem:text with extention line	!
16G\L 16d 16f	4b^\ 4ff 4bb	<
16G\J 16d 16f	.	.
8G\ 8d 8f	.	.
8G\J 8d 8f	(16a\LL 16aa	.
*	*Xped	*
.	16b\JJ 16bb	.
8c\L 8e	8cc\L) 8ccc	.
8AAA\J 8AA	8aa'\J 8aaa	.
!!LO:LB:g=original	!	!
=14	=14	=14
*	*ped	*
8GGG\L 8GG	8gg'\ 8ddd 8ggg	.
16G\L 16B 16f	4dd^\ 4gg 4ddd	.
16G\J 16B 16f	.	.
8G\ 8B 8f	.	.
8G\J 8B 8f	(16cc\LL 16ccc	[
*	*Xped	*
.	16dd\JJ 16ddd	.
8G\L 8c 8e	8ee\L) 8eee	.
8EEE\J 8EE	8ccc'\J 8cccc	.
=15	=15	=15
*	*ped	*
8FFF\L 8FF	8ccc'\ 8cccc	ff
16F\L 16A 16d	4dd^\ 4ddd	.
16F\J 16A 16d	.	.
8F\ 8A 8d	.	.
8F\J 8A 8d	(16dd\LL 16ddd	.
.	16ee\JJ 16eee	.
8F\L 8A 8d	16ff\LL 16fff	.
.	16ee\) 16eee	.
8FFF\J 8FF	(16ff\ 16fff	.
.	16aa\JJ) 16aaa	.
*	*Xped	*
=16	=16	=16
*	*ped	*
8GGG/ 8GG	8gg'\ 8ggg	.
4G^\ 4B 4f	(16dd\LL 16ff 16ddd	.
.	16ee\JJ) 16gg 16eee	.
.	4dd\ 4ff 4ddd	.
8GGG/L 8GG	.	.
*	*Xped	*
8CC/J 8C	8cc\ 8ee 8ccc	.
8r	8r	.
=17||	=17||	=17||
8FF#X'\L 8F#X	8A'/L 8c 8d	p <
8GG'\ 8G	16A'/L 16c 16e-X	.
.	16A'/J 16c 16e-	.
8FF#'\ 8F#	8A'/ 8c 8d	.
8EE-X'\ 8E-X	8A'/ 8c 8g	.
8DD'\ 8D	8A'/ 8c 8f#X	.
8D'\J 8A 8c	8f#'/J 8een	[[
=18	=18	=18
*	*ped	*
4GG:\ 4D: 4B:	(16g^:\LL 16b: 16ee:	f
.	16dd\	.
.	16b\	.
.	16g\JJ)	.
8r	(4.e^>/	.
8D\L 8G 8B	.	.
8D\ 8G 8B	.	.
8D\J 8G 8B	8d/)	.
*	*Xped	*
!!LO:PB:g=original	!	!
=19	=19	=19
8GG#X'\L 8G#X	8B'/L 8d 8e	p <
8AA'\ 8A	16B'/L 16d 16f	.
.	16B'/J 16d 16f	.
8GG#'\ 8G#	8B'/ 8d 8e	.
8FF'\ 8F	8B'/ 8d 8a	.
8EE'\ 8E	8B'/ 8d 8g#X	.
8E'\J 8d 8f	8g#'/J 8ff	[[
=20	=20	=20
*	*ped	*
4AA:\ 4E: 4c:	(16a^:\LL 16cc: 16ff:	f
.	16ee\	.
.	16cc\	.
.	16a\JJ)	.
8r	(4.f^/	.
8E\L 8A 8c	.	.
8E\ 8A 8c	.	.
8E\J 8A 8c	8e/)	.
*	*Xped	*
=21	=21	=21
8C\L	(16g\LL	p
.	16f#X\	.
8D\J 8F#X 8c	16f#\	.
.	16ee\JJ)	.
!	!LO:TX:b:i:t=delicato	!
8BB\L	[4ee^\	.
8D\ 8G 8d	.	.
8D\ 8G 8d	(16ee\LL]	.
.	16dd\	.
8D\J 8G 8d	16dd\	.
.	16gg\JJ)	.
=22	=22	=22
8AA\L	(16gg\LL	.
.	16ff#X\	.
8D\J 8F#X 8c	16ff#\	.
.	16eee\JJ)	.
8GG\L	[4eee^\	.
8D\ 8G 8B	.	.
8D\ 8G 8B	(16eee\LL]	.
.	16ddd\	.
8D\J 8G 8B	16ddd\	.
.	16ddd#X\JJ)	.
!!LO:LB:g=original	!	!
=23	=23	=23
*	*ped	*
8CC/ 8C	(16fff#X\LL	.
.	16eee\	.
4E^\ 4A 4c	16aa\	.
.	16gg#X\JJ)	.
.	(16bb\LL	.
.	16aa\	.
8E\L 8A 8c	16ee\	.
.	16dd#X\JJ)	.
8C\	(16ff#X\LL	.
.	16ee\	.
8E\J 8A 8c	16gn\	.
.	16a\JJ)	.
*	*Xped	*
=24	=24	=24
*	*^	*
*	*ped	*	*
8BBB\L	2b/	8r	.
16BB\L 16F#X	.	16B\LL 16d#X 16f#X	.
16BB\J 16F#	.	16B\J 16d# 16f#	.
8BB\ 8F#	.	8B\ 8d# 8f#	.
8BB\J 8F#	.	8B\J 8d# 8f#	.
!	!LO:TX:b:i:t=rit.	!	!
*	*Xped	*	*
4GG\ 4D 4G	(8a/L	4B\ 4dn 4fn	.
.	8g/J)	.	.
*	*v	*v	*
=25||	=25||	=25||
*	*ped	*
8CC\L 8C	8e'\L 8cc 8ee	f
16E\L 16G 16c 16e	8g'\J 8ee 8gg	.
16E\J 16G 16c 16e	.	.
8E'\ 8G 8c 8e	(4.a^\ 4.ff 4.aa	.
8E'\ 8G 8c 8e	.	.
8E'\ 8G 8c 8e	.	.
8E'\J 8G 8c 8e	8g\) 8ee 8gg	.
*	*Xped	*
=26	=26	=26
*	*ped	*
8CC\L 8C	8e'\L 8cc 8ee	.
16E\L 16G 16c 16e	8cc'\J 8ee 8ccc	.
16E\J 16G 16c 16e	.	.
8E'\ 8G 8c 8e	(4.dd^\ 4.ff 4.ddd	.
8E'\ 8G 8c 8e	.	.
8E'\ 8G 8c 8e	.	.
8E'\J 8G 8c 8e	8cc\) 8ee 8ccc	.
*	*Xped	*
!!LO:LB:g=original	!	!
=27	=27	=27
*	*ped	*
8CC\L 8C	8g'\L 8ee 8gg	.
16E\L 16G 16c 16e	8ee'\ 8gg 8eee	.
16E\J 16G 16c 16e	.	.
8E\ 8G 8c 8e	8ff'\ 8aa 8fff	.
8E\J 8G 8c 8e	8ee'\ 8gg 8eee	.
*	*Xped	*
8EEE\L 8EE	8dd'\ 8gg 8ddd	.
8E\J 8G 8c	8cc\J 8gg 8ccc	.
=28	=28	=28
*	*ped	*
8FFF\L 8FF	16b\LL 16gg 16bb	ff
.	16a\ 16ff 16aa	.
16F\L 16A 16d	16a\ 16ff 16aa	.
16F\J 16A 16d	16g#X\JJ 16ee 16gg#X	.
8F'\ 8A 8d	4a\ 4ff 4aa	.
*	*Xped	*
8F'\ 8A 8d	.	.
8F'\ 8A 8d	4r	.
8F'\J 8A 8d	.	.
=29	=29	=29
*	*ped	*
8DD\L 8D	8f'\L 8dd 8ff	f
16F\L 16A 16d	8a'\J 8ff 8aa	.
16F\J 16A 16d	.	.
8F'\ 8A 8d	(4.b^\ 4.gg 4.bb	.
8F'\ 8A 8d	.	.
8F'\ 8A 8d	.	.
8F'\J 8A 8d	8a\) 8ff 8aa	.
*	*Xped	*
=30	=30	=30
*	*ped	*
8DD\L 8D	8f'\L 8dd 8ff	.
16F\L 16A 16d	8dd'\J 8ff 8ddd	.
16F\J 16A 16d	.	.
8F'\ 8A 8d	(4.ee^\ 4.gg 4.eee	.
8F'\ 8A 8d	.	.
8F'\ 8A 8d	.	.
8F'\J 8A 8d	8dd\) 8ff 8ddd	.
*	*Xped	*
!!LO:LB:g=original	!	!
=31	=31	=31
*	*ped	*
8GGG\L 8GG	8b\ 8dd 8bb	.
16G\L 16d 16f	4g^\ 4b 4gg	.
16G\J 16d 16f	.	.
8G\ 8d 8f	.	.
8G\ 8d 8f	(16a\LL 16cc 16aa	<
*	*Xped	*
.	16b\JJ 16dd 16bb	.
8G\ 8c 8e	16cc\LL 16ee 16ccc	.
.	16b\ 16dd 16bb	.
8G\J 8c 8e	16cc\ 16ee 16ccc	.
.	16ee\JJ) 16eee	[[
=32	=32	=32
8G/L 8B 8d	8dd\L 8gg 8ddd	ff
16GGG'/L 16GG	16gg'\L 16ggg	.
16GGG'/J 16GG	16gg'\J 16ggg	.
8GGG'/ 8GG	8gg'\ 8ggg	.
8GGG'/ 8GG	8gg'\ 8ggg	.
8GGG'/ 8GG	8gg'\ 8ggg	.
8GGG'/J 8GG	8gg'\J 8ggg	.
=33	=33	=33
*	*ped	*
8CCC\L 8CC	8e'\L 8cc 8ee	f
16E\L 16G 16c 16e	8g'\J 8ee 8gg	.
16E\J 16G 16c 16e	.	.
8E\ 8G 8c 8e	(4.a^\ 4.ff 4.aa	.
8E\ 8G 8c 8e	.	.
8E\ 8G 8c 8e	.	.
8E\J 8G 8c 8e	8g\) 8ee 8gg	.
*	*Xped	*
=34	=34	=34
*	*ped	*
8CC\L 8C	8e'\L 8cc 8ee	.
16E\L 16G 16c 16e	8cc'\J 8ee 8ccc	.
16E\J 16G 16c 16e	.	.
8E\ 8G 8c 8e	(4.dd^\ 4.ff 4.ddd	.
8E\ 8G 8c 8e	.	.
8E\ 8G 8c 8e	.	.
8E\J 8G 8c 8e	8cc\) 8ee 8ccc	.
*	*Xped	*
=35	=35	=35
*	*ped	*
8CC\L 8C	8g'\L 8ee 8gg	.
16E\L 16G 16c 16e	8ee'\ 8gg 8eee	.
16E\J 16G 16c 16e	.	.
8E\ 8G 8c 8e	8ff'\ 8aa 8fff	.
8E\J 8G 8c 8e	8ee'\ 8gg 8eee	.
*	*Xped	*
8EEE\L 8EE	8dd'\ 8gg 8ddd	.
8E\J 8G 8c	8cc'\J 8gg 8ccc	.
!!LO:LB:g=original	!	!
=36	=36	=36
*	*ped	*
8FFF\L 8FF	16g\LL 16gg 16bb	ff
.	16a\ 16ff 16aa	.
16F\L 16A 16d	16a\ 16ff 16aa	.
16F\J 16A 16d	16g#X\JJ 16ee 16gg#X	.
8F\ 8A 8d	4a\ 4ff 4aa	.
*	*Xped	*
8F\ 8A 8d	.	.
8F\ 8A 8d	4r	.
8F\J 8A 8d	.	.
=37	=37	=37
*	*ped	*
8GGG\L 8GG	8ff\ 8bb 8fff	.
16G\L 16d 16f	4b^\ 4ff 4bb	<
16G\J 16d 16f	.	.
8G\ 8d 8f	.	.
8G\J 8d 8f	(16a\LL 16aa	.
*	*Xped	*
.	16b\JJ 16bb	.
8c\L 8e	8cc\L) 8ccc	.
8AAA\J 8AA	8aa'\J 8aaa	.
=38	=38	=38
*	*ped	*
8BBB\L 8BB	8gg'\ 8ddd 8ggg	.
16G\L 16B 16f	4dd^\ 4gg 4ddd	.
16G\J 16B 16f	.	.
8G\ 8B 8f	.	.
8G\J 8B 8f	(16cc\LL 16ccc	[
.	16dd\JJ 16ddd	.
*	*Xped	*
8G\L 8c 8e	8ee\L) 8eee	.
8EEE\J 8EE	8ccc'\J 8cccc	.
=39	=39	=39
*	*ped	*
8FFF\L 8FF	8ccc'\ 8cccc	ff
16F\L 16A 16d	4dd^\ 4ddd	.
16F\J 16A 16d	.	.
8F\ 8A 8d	.	.
8F\J 8A 8d	(16dd\LL 16ddd	.
.	16ee\JJ 16eee	.
8F\L 8A 8d	16ff\LL 16fff	.
.	16ee\) 16eee	.
8FFF\J 8FF	(16ff\ 16fff	.
.	16aa\JJ) 16aaa	.
*	*Xped	*
=40	=40	=40
*	*ped	*
8GGG/ 8GG	8gg'\ 8ggg	.
4G^\ 4B 4f	(16dd\LL 16ff 16ddd	.
.	16ee\JJ) 16gg 16eee	.
.	4dd\ 4ff 4ddd	.
8GGG/L 8GG	.	.
*	*Xped	*
8CC/J 8C	8cc\ 8ee 8ccc	.
!	!LO:TX:i:b:t=Fine.	!
8r	8r	.
!!LO:PB:g=original	!	!
=41||	=41||	=41||
*k[b-]	*k[b-]	*
*M3/4	*M3/4	*
*	*ped	*
!	!LO:TX:B:a:t=Trio.	!
!LO:TX:a:i:t=dolce	!LO:TX:a:i:t=ten.	!
(8FF:\L 8C: 8A:	4.c/ 4.a 4.cc	.
8c\	.	.
8A\ 8f	.	.
8c\	8d/L 8dd	.
8A\ 8f	8e/ 8ee	.
8c\J)	8f/J 8ff	.
*	*Xped	*
=42	=42	=42
(8GG\L 8G	8e/L 8ee	.
8c\	8b-/J	.
8G\ 8B- 8e	(4.e^>/ 4.ee	.
8c\	.	.
8G\ 8B- 8e	.	.
8c\J)	8d/) 8dd	.
=43	=43	=43
*	*ped	*
!	!LO:TX:a:i:t=ten.	!
(8CC:\L 8GG: 8E:	4.c/ 4.b- 4.cc	.
8c\	.	.
8G\ 8B- 8e	.	.
8c\	8e\L 8ee	.
8G\ 8B- 8e	8g\ 8gg	.
8c\J)	8b-\J 8bb-	.
*	*Xped	*
=44	=44	=44
(8FF:\L 8C: 8A:	8a\L 8aa	.
8c\	8cc\J	.
8A\ 8f	4a\ 4aa	.
8c\	.	.
8A\ 8f	4r	.
8c\J)	.	.
!!LO:LB:g=original	!	!
=45	=45	=45
*	*ped	*
!	!LO:TX:a:i:t=ten.	!
8DD\L 8D	4.a\ 4.aa	<
8F\ 8A 8d 8f	.	.
8F\ 8A 8d 8f	.	.
8F\ 8A 8d 8f	8bn\L 8bbn	<
8F\ 8A 8d 8f	8cc\ 8ccc	.
8F\J 8A 8d 8f	8dd\J 8ddd	[[
*	*Xped	*
=46	=46	=46
*	*ped	*
8GGG\L 8GG	8ee\L 8eee	f
8G\ 8c 8e	8gg\J	.
8G\ 8c 8e	(4.ff^\ 4.aa 4.fff	.
8G\ 8c 8e	.	.
8G\ 8c 8e	.	.
8G\J 8c 8e	8ee\) 8gg 8eee	.
*	*Xped	*
=47	=47	=47
*	*ped	*
8GGG\L 8GG	8dd\L 8ff 8ddd	.
8G\ 8Bn 8d 8f	8gg\J	.
8G\ 8B 8d 8f	(4.ee^\ 4.gg 4.eee	.
8G\ 8B 8d 8f	.	.
8G\ 8B 8d 8f	.	.
8G\J 8B 8d 8f	8dd\) 8ff 8ddd	.
*	*Xped	*
=48	=48	=48
8CC/ 8C	8cc'\ 8ee 8ccc	fz
*clefG2	*	*
!	!LO:TUP:a:problem:klamra łukowa	!
8dd\L	24ff\LL 24bb-	p
.	24ccc\	.
.	24bb-\J	.
8cc\	8ee'\ 8aa	.
8b-\	8dd'\ 8gg	.
8g\	8b-'\ 8ee	.
8e\J	8g'\J 8b- 8cc	.
*clefF4	*	*
!!LO:LB:g=original	!	!
=49	=49	=49
*	*ped	*
!LO:TX:a:i:t=dolce	!LO:TX:a:i:t=ten.	!
(8FF:\L 8C: 8A:	4.c/ 4.a 4.cc	.
8c\	.	.
8A\ 8f	.	.
8c\	8d/L 8dd	.
8A\ 8f	8e/ 8ee	.
8c\J)	8f/J 8ff	.
*	*Xped	*
=50	=50	=50
(8GG\L 8G	8e/L 8ee	.
8c\	8b-/J	.
8G\ 8B- 8e	(4.e^>/ 4.ee	.
8c\	.	.
8G\ 8B- 8e	.	.
8c\J)	8d/) 8dd	.
=51	=51	=51
*	*ped	*
!	!LO:TX:a:i:t=ten.	!
(8CC:\L 8GG: 8E:	4.c/ 4.b- 4.cc	.
8c\	.	.
8G\ 8B- 8e	.	.
8c\	8e\L 8ee	.
8G\ 8B- 8e	8g\ 8gg	.
8c\J)	8b-\J 8bb-	.
*	*Xped	*
=52	=52	=52
(8FF:\L 8C: 8A:	8a\L 8aa	.
8c\	8cc\J	.
8A\ 8f	4a\ 4aa	.
8c\	.	.
8A\ 8f	4r	.
8c\J)	.	.
!!LO:LB:g=original	!	!
=53	=53	=53
*	*ped	*
!	!LO:TX:a:i:t=ten.	!
8DD\L 8D	4.a\ 4.aa	p
8A\ 8d 8f	.	.
8A\ 8d 8f	.	.
8A\ 8d 8f	8a\L 8aa	.
.	(8qccc/	.
8A\ 8d 8f	8b-\) 8bb-	.
8A\J 8d 8f	8a\J 8aa	.
*	*Xped	*
=54	=54	=54
*	*ped	*
8BBB-\L 8BB-	8a\L 8aa	.
8B-\ 8d 8g	8g\J 8gg	.
8B-\ 8d 8g	(4.ee^\ 4.eee	.
8B-\ 8d 8g	.	.
8B-\ 8d 8g	.	.
8B-\J 8d 8g	8dd\) 8ddd	.
*	*Xped	*
=55	=55	=55
8CC\L 8C	(8cc\L 8ccc	.
8G\ 8B- 8c 8e	8bn\ 8bbn	.
8G\ 8B- 8c 8e	8b-X\ 8bb-X	.
8G\ 8B-	8c\ 8cc	.
8G\ 8B- 8c 8e	8g\ 8gg	.
8G\J 8B- 8c 8e	8a\J) 8aa	.
=56	=56	=56
*	*ped	*
8F\ 8A 8c	8f'\L 8a 8ff	fz
8r	(16a\L 16cc 16aa	.
.	16g\JJ) 16b- 16gg	.
8r	(4g^\ 4b- 4gg	.
8CC/L 8C	.	.
8FF/J 8F	8f\) 8a 8ff	.
8r	8r	.
*	*Xped	*
!!LO:LB:g=original	!	!
=57||	=57||	=57||
8BBBn'/L 8BBn	8d'/L 8f 8g	p
!	!LO:TX:b:i:t=tranquillo	!
!	!LO:TUP:b:problem:klamra łukowa	!
8GGG'/ 8GG	24d/L 24f 24a	.
.	24bn/	.
.	24a/J	.
8BBB'/ 8BB	8d'/J 8f 8g	.
8GGG'/ 8GG	(>4f^>/ 4g 4ee	.
8BBB'/ 8BB	.	.
8GGG'/J 8GG	8f/) 8g 8dd	.
=58	=58	=58
8CC'/L 8C	8e'/L 8g	.
!	!LO:TUP:b:problem:klamra łukowa	!
8GGG'/ 8GG	24e/L 24a	.
.	24bn/	.
.	24a/J	.
8CC'/ 8C	8e'/J 8g	.
8GGG'/ 8GG	(>4e^>/ 4g 4dd	.
8CC'/ 8C	.	.
8GGG'/J 8GG	8e/) 8g 8cc	.
=59	=59	=59
8CC#X'/L 8C#X	8e'/L 8g 8a	.
!	!LO:TUP:b:problem:klamra łukowa	!
8AAA'/ 8AA	24e/L 24g 24b-X	.
.	24cc/	.
.	24b-/J	.
!	!LO:TX:B:t=cre_scen_do:dur=4e3s2q:ext=ud:problem:text with extention line	!
8CC#'/ 8C#	8e'/J 8g 8a	<
8AAA'/ 8AA	(4g^\ 4a 4ff	.
8CC#'/ 8C#	.	.
8AAA'/J 8AA	8g\) 8a 8ee	.
=60	=60	=60
8DD'/L 8D	8f'/L 8a	.
!	!LO:TUP:b:problem:klamra łukowa	!
8AAA'/ 8AA	24f/L 24b-	.
.	24cc/	.
.	24b-/J	.
8DD'/ 8D	8f'/J 8a	.
8AAA'/ 8AA	(4f^\ 4a 4ee	[
8DD'/ 8D	.	.
8FF'/J 8F	8f/) 8a 8dd	.
!!LO:PB:g=original	!	!
=61	=61	=61
*	*ped	*
8FFF\L 8FF	(4.dd^\ 4.ff 4.bbn	ff
16F\L 16A 16d	.	.
16F\J 16A 16d	.	.
8F\ 8A 8d	.	.
8F\ 8A 8d	8aa\L	.
8F\ 8A 8d	8ff\	.
8F\J 8A 8d	8dd\J)	.
*	*Xped	*
=62	=62	=62
8GGG\L 8GG	(8dd\L	.
16G\L 16c 16e	8cc\J)	.
16G\J 16c 16e	.	.
8G\ 8c 8e	(4.a\ 4.aa	.
8G\ 8c 8e	.	.
8G\ 8c 8e	.	.
8G\J 8c 8e	8g\) 8gg	.
=63	=63	=63
*^	*	*
*	*	*ped	*
4GG/ 4GGG/	4ryy	(8f#X\L 8ff#X	.
.	.	8g\ 8gg	.
(8e/L	2G\ 2Bn	8cc\ 8ccc	.
8d/	.	8bn\ 8bbn	.
8g/	.	8ee\ 8eee	.
8f/J)	.	8dd\J) 8ddd	.
*	*	*Xped	*
*v	*v	*	*
=64	=64	=64
8C:\ 8G: 8e:	8cc'\ 8ee 8ccc	fz
*clefG2	*	*
!	!LO:TUP:a:problem:klamra łukowa	!
8dd\L	24ff\LL 24bb-	p
.	24ccc\	.
.	24bb-\J	.
8cc\	8ee'\ 8aa	.
8b-\	8dd'\ 8gg	.
8g\	8b-'\ 8ee	.
8e\J	8g'\J 8b- 8cc	.
*clefF4	*	*
!!LO:LB:g=original	!	!
=65||	=65||	=65||
*	*ped	*
!	!LO:TX:b:i:t=dolce	!
!	!LO:TX:a:i:t=ten.	!
(8FF:\L 8C: 8A:	4.c/ 4.a 4.cc	.
8c\	.	.
8A\ 8f	.	.
8c\	8d/L 8dd	.
8A\ 8f	8e/ 8ee	.
8c\J)	8f/J 8ff	.
*	*Xped	*
=66	=66	=66
(8GG\L 8G	8e/L 8ee	.
8c\	8b-/J	.
8G\ 8B- 8e	(4.e^>/ 4.ee	.
8c\	.	.
8G\ 8B- 8e	.	.
8c\J)	8d/) 8dd	.
=67	=67	=67
*	*ped	*
!	!LO:TX:a:i:t=ten.	!
(8CC:\L 8GG: 8E:	4.c/ 4.b- 4.cc	.
8c\	.	.
8G\ 8B- 8e	.	.
8c\	8e\L 8ee	.
8G\ 8B- 8e	8g\ 8gg	.
8c\J)	8b-\J 8bb-	.
*	*Xped	*
=68	=68	=68
(8FF:\L 8C: 8A:	8a\L 8aa	.
8c\	8cc\J	.
8A\ 8f	4a\ 4aa	.
8c\	.	.
8A\ 8f	4r	.
8c\J)	.	.
!!LO:LB:g=original	!	!
=69	=69	=69
*	*ped	*
!	!LO:TX:a:i:t=ten.	!
8DD\L 8D	4.a\ 4.aa	.
8F\ 8A 8d 8f	.	<
8F\ 8A 8d 8f	.	.
8F\ 8A 8d 8f	8bn\L 8bbn	.
8F\ 8A 8d 8f	8cc\ 8ccc	.
8F\J 8A 8d 8f	8dd\J 8ddd	.
*	*Xped	*
=70	=70	=70
*	*ped	*
8BBB-\L 8BB-	8ee\L 8eee	f
8G\ 8c 8e	8gg\J	.
8G\ 8c 8e	(4.ff^\ 4.aa 4.fff	.
8G\ 8c 8e	.	.
8G\ 8c 8e	.	.
8G\J 8c 8e	8ee\) 8gg 8eee	.
*	*Xped	*
=71	=71	=71
*	*ped	*
8GGG\L 8GG	8dd\L 8ff 8ddd	.
8G\ 8Bn 8d 8f	8gg\J	.
8G\ 8B 8d 8f	(4.ee^\ 4.gg 4.eee	.
8G\ 8B 8d 8f	.	.
8G\ 8B 8d 8f	.	.
8G\J 8B 8d 8f	8dd\) 8ff 8ddd	.
*	*Xped	*
=72	=72	=72
8CC/ 8C	8cc'\ 8ee 8ccc	fz
*clefG2	*	*
!	!LO:TUP:a:problem:klamra łukowa	!
8dd\L	24ff\LL 24bb-	p
.	24ccc\	.
.	24bb-\J	.
8cc\	8ee'\ 8aa	.
8b-\	8dd'\ 8gg	.
8g\	8b-'\ 8ee	.
8e\J	8g'\J 8b- 8cc	.
*clefF4	*	*
!!LO:LB:g=original	!	!
=73	=73	=73
*	*ped	*
!LO:TX:a:i:t=dolce	!LO:TX:a:i:t=ten.	!
(8FF:\L 8C: 8A:	4.c/ 4.a 4.cc	.
8c\	.	.
8A\ 8f	.	.
8c\	8d/L 8dd	.
8A\ 8f	8e/ 8ee	.
8c\J)	8f/J 8ff	.
*	*Xped	*
=74	=74	=74
(8GG\L 8G	8e/L 8ee	.
8c\	8b-/J	.
8G\ 8B- 8e	(4.e^>/ 4.ee	.
8c\	.	.
8G\ 8B- 8e	.	.
8c\J)	8d/) 8dd	.
=75	=75	=75
*	*ped	*
!	!LO:TX:a:i:t=ten.	!
(8CC:\L 8GG: 8E:	4.c/ 4.b- 4.cc	.
8c\	.	.
8G\ 8B- 8e	.	.
8c\	8e\L 8ee	.
8G\ 8B- 8e	8g\ 8gg	.
8c\J)	8b-\J 8bb-	.
*	*Xped	*
=76	=76	=76
(8FF:\L 8C: 8A:	8a\L 8aa	.
8c\	8cc\J	.
8A\ 8f	4a\ 4aa	.
8c\	.	.
8A\ 8f	4r	.
8c\J)	.	.
!!LO:LB:g=original	!	!
=77	=77	=77
*	*ped	*
!	!LO:TX:a:i:t=ten.	!
8DD\L 8D	4.a\ 4.aa	p
8A\ 8d 8f	.	.
8A\ 8d 8f	.	.
8A\ 8d 8f	8a\L 8aa	.
.	(8qccc/	.
8A\ 8d 8f	8b-\) 8bb-	.
8A\J 8d 8f	8a\J 8aa	.
*	*Xped	*
=78	=78	=78
*	*ped	*
8BBB-\L 8BB-	8a\L 8aa	.
8B-\ 8d 8g	8g\J 8gg	.
8B-\ 8d 8g	(4.ee^\ 4.eee	.
8B-\ 8d 8g	.	.
8B-\ 8d 8g	.	.
8B-\J 8d 8g	8dd\) 8ddd	.
*	*Xped	*
=79	=79	=79
8CC\L 8C	(8cc\L 8ccc	.
8G\ 8B- 8c 8e	8bn\ 8bbn	.
8G\ 8B- 8c 8e	8b-X\ 8bb-X	.
8G\ 8B-	8c\ 8cc	.
8G\ 8B- 8c 8e	8g\ 8gg	.
8G\J 8B- 8c 8e	8a\J) 8aa	.
=80	=80	=80
*	*ped	*
8F\ 8A 8c	8f'\L 8a 8ff	fz
8r	(16a\L 16cc 16aa	.
.	16g\JJ) 16b- 16gg	.
8r	(4g^\ 4b- 4gg	.
8CC/L 8C	.	.
8FF/J 8F	8f\) 8a 8ff	.
!LO:TX:b:i:t=Polonaise D.C. al Fine.	!	!
8r	8r	.
*	*Xped	*
==	==	==
*-	*-	*-
!!!system-decoration: {(s1,s2)}
!!!RDF**kern: N = linked
!!!RDF**kern: > = above
!!!RDF**kern: < = below
!!!ENC: Filip Voros
!!!END: 2022-08-06
!!!ENC: Natalia Wrzos
!!!END: 2022-08-29
!!!YEC: Copyright 2022 Narodowy Instytut Fryderyka Chopina (https://polishscores.org)
!!!YEM: License CC-BY-4.0 (https://creativecommons.org/licenses/by/4.0)
